X:1
T:Title
%%score ( 1 2 3 ) { ( 4 6 ) | ( 5 7 ) }
L:1/8
Q:1/4=80
M:2/4
K:C
V:1 treble nm="Grand Piano, Soprano"
V:2 treble 
V:3 treble 
V:4 bass nm="Choir Pad, Joyous Christmas Bells"
V:6 bass 
V:5 bass 
V:7 bass 
V:1
 GE FD | EC cd | GA f[Ge] | [Fd] .[Ec]3 | GE FD | EC [Cc][Dd] | [G,G][A,A] [B,B][Cc] | z G3 | %8
w: By~Arthur~Henry~Brown * * *||||||||
 [FG][EG] [EA][DA] | [^Fd][Gd]- [Gd]/[FB]/G | [Ee]d AB | z G z2 | [B,G][CG] [DG][EG] | %13
w: |||||
 [FB][Gc]- [Gc]/[Fd]/[Ee] | [CA][DA] [EA][FA] | [G^c][Ad]- [Ad]/[Ge]/[Ff] | [Gd][Ge] [Ac][Fd] | %17
w: ||||
 [GB][Ec] [FA][DB] | [EG]F AG | [Fd] [Ec]3 | [Ge][Af]- [Af]/[Ad]/[GB] | [Fd][Ee] [Ec][FA] | %22
w: |||||
 [DF]C- [CA]G | [FG]G- [DG-][CG] | [Gc][FB]- [FB]/[EA]/[DG] | [Ec][Gd] [GB][Gc] | z4 | .B2 z2 | %28
w: ||||||
 z4 |] %29
w: |
V:2
 x4 | x4 | x4 | x4 | x4 | x4 | x4 | [CE] D2 E | x4 | x4 | z ^F3 | [^Fc]B- [DB-][B,B] | x4 | x4 | %14
 x4 | x4 | x4 | x4 | x4 | x4 | x4 | x4 | z E z2 | z E z2 | x4 | x4 | [Ff][Ge] [Ad]c | %27
 z/ F/ [Ec]3- | [Ec]4 |] %29
V:3
 x4 | x4 | x4 | x4 | x4 | x4 | x4 | x4 | x4 | x4 | x4 | x4 | x4 | x4 | x4 | x4 | x4 | x4 | x4 | %19
 x4 | x4 | x4 | x4 | x4 | x4 | x4 | z2 z G- | G2 z2 | x4 |] %29
V:4
 G,E, F,D, | E,C, CD | G,A, F,G, | G,, .C,3 | G,E, F,D, | E,C, CD | G,A, B,[K:treble]C | C B,2 C | %8
 B,C[K:bass] A,^F, | A,D- D/[K:treble]D/B, | CA, C[K:bass]B, | A, G,2 D, | G,A, B,[K:treble]C | %13
 DC- C/B,/C | A,B, ^CD | ED- D/^C/D | B, C3- | C G,3 | CD[K:bass] A,B, | G, C3 | %20
 _B,[K:treble]C- C/D/D | B,B, CC | A,G, A,/B,/C | B,G, F,E, | EF- F/C/B, | z2[K:bass] .D2 | %26
 C[K:treble] C2 E | D C3- | C4 |] %29
V:5
 z4 | z4 | z4 | z4 | z4 | z4 | z4 | A,G, F,E, | D,C, C,C, | C,B,,- B,,/D,/E, | C, C,3 | D, G,,3 | %12
 z4 | D,E,- E,<.G, | z4 | E,F,- F,<.A, | G, C,3- | C,4- | C, C,3- | C,2 _B,A, | G,F,- F,/F,/G, | %21
 G,^G, A,F, | .F,2 F,E, | D, C,3 | z4 | A, G,2 E, | A,G, z/[K:treble] F/G, | B,, C,3- | C,4 |] %29
V:6
 x4 | x4 | x4 | x4 | x4 | x4 | x3[K:treble] x | x4 | x2[K:bass] x2 | x5/2[K:treble] x3/2 | %10
 x3[K:bass] x | x4 | x3[K:treble] x | x4 | x4 | x4 | x4 | x4 | x2[K:bass] x2 | x4 | %20
 x[K:treble] x3 | x4 | x4 | x4 | x4 | C[K:bass]B, z/ F,/E | x[K:treble] x3 | x4 | x4 |] %29
V:7
 x4 | x4 | x4 | x4 | x4 | x4 | x4 | x4 | x4 | x4 | x4 | x4 | x4 | x4 | x4 | x4 | x4 | x4 | x4 | %19
 x4 | x4 | x4 | x4 | x4 | x4 | x4 | z2 .F,2[K:treble] | x4 | x4 |] %29

